svg/700/sharp/laptop_car-fill.svg

<svg xmlns="http://www.w3.org/2000/svg" width="48" height="48" viewBox="0 -960 960 960"><path d="M370-55v-318l69-200h398l69 200v318h-86v-70H455v70h-85Zm80-363h375l-33.06-93H483l-33 93Zm71.89 192q19.09 0 32.1-12.91Q567-251.81 567-270.89q0-19.09-12.91-32.1Q541.19-316 522.11-316q-19.09 0-32.1 12.91Q477-290.19 477-271.11t12.91 32.1Q502.81-226 521.89-226Zm231 0q19.09 0 32.1-12.91Q798-251.81 798-270.89q0-19.09-12.91-32.1Q772.19-316 753.11-316q-19.09 0-32.1 12.91Q708-290.19 708-271.11t12.91 32.1Q733.81-226 752.89-226ZM15-135v-124h80v-567h731v193H396l-86 254v244H15Z"/></svg>

<svg xmlns="http://www.w3.org/2000/svg" width="48" height="48" viewBox="0 -960 960 960"><path d="M370-55v-318l69-200h398l69 200v318h-86v-70H455v70h-85Zm80-363h375l-33-93H483l-33 93Zm71.89 192Q541-226 554-238.89q13-12.9 13-32Q567-290 554.11-303q-12.9-13-32-13Q503-316 490-303.11q-13 12.9-13 32Q477-252 489.89-239q12.9 13 32 13Zm231 0Q772-226 785-238.89q13-12.9 13-32Q798-290 785.11-303q-12.9-13-32-13Q734-316 721-303.11q-13 12.9-13 32Q708-252 720.89-239q12.9 13 32 13ZM15-135v-124h80v-567h731v193H396l-86 254v244H15Z"/></svg>
